X:1088
T:A New March.
M:C
L:1/8
Q:1/2=66
I: :| ||
Z:Jack Campin * www.campin.me.uk * 2009
K:G
(DE/F/)|G2G2 (G>D)(G>B)|A2 A2 (A>D)(A>c)| B>g``d>B      (A>GA>B)|           G2G>G G2:|
 B>c   |d2d2  d>g``bg  |d2 d>d d2   c>B | c2   c>c       c2 B>c |g3  f edcB|A2A>A A2
(DE/F/)|G2G2  G>D``G>B |A2 A2  A>D``A>c |(Bg) (f/e/d/c/) B2 A2  |           G2G>G G2|]
<end>
<start>
